Simply-Cyan-Circles/scalable/notifications/notification-battery-020.svg

<svg xmlns="http://www.w3.org/2000/svg" width="48" height="48" viewBox="0 0 12.7 12.7"><path d="M8.5 9.69H4.2v.6c1.44 1.03 3.1.72 4.3-.02z" fill="maroon"/><path d="M6.42 1.93a4.5 4.5 0 0 0-2.22.56v7.2h4.3l.01-7.2a4.83 4.83 0 0 0-2.1-.56zm.37 1.44v2.46h.86L5.92 9.2V6.73h-.87L6.8 3.37z" opacity=".5" fill="#1a1a1a"/><path d="M6.35 1.35a5 5 0 0 0-5 5 5 5 0 0 0 5 5 5 5 0 0 0 5-5 5 5 0 0 0-5-5zm-.01.75a4.3 4.3 0 0 1 4.3 4.3 4.3 4.3 0 0 1-4.3 4.29 4.3 4.3 0 0 1-4.3-4.3 4.3 4.3 0 0 1 4.3-4.3z" fill="maroon"/></svg>

<?xml version="1.0" encoding="UTF-8" standalone="no"?>
<svg
   xmlns:dc="http://purl.org/dc/elements/1.1/"
   xmlns:cc="http://creativecommons.org/ns#"
   xmlns:rdf="http://www.w3.org/1999/02/22-rdf-syntax-ns#"
   xmlns:svg="http://www.w3.org/2000/svg"
   xmlns="http://www.w3.org/2000/svg"
   xmlns:sodipodi="http://sodipodi.sourceforge.net/DTD/sodipodi-0.dtd"
   xmlns:inkscape="http://www.inkscape.org/namespaces/inkscape"
   width="48"
   height="48"
   viewBox="0 0 12.7 12.7"
   version="1.1"
   id="svg8"
   sodipodi:docname="notification-battery-020.svg"
   inkscape:version="0.92.4 (5da689c313, 2019-01-14)">
  <metadata
     id="metadata14">
    <rdf:RDF>
      <cc:Work
         rdf:about="">
        <dc:format>image/svg+xml</dc:format>
        <dc:type
           rdf:resource="http://purl.org/dc/dcmitype/StillImage" />
        <dc:title></dc:title>
      </cc:Work>
    </rdf:RDF>
  </metadata>
  <defs
     id="defs12" />
  <sodipodi:namedview
     pagecolor="#ffffff"
     bordercolor="#666666"
     borderopacity="1"
     objecttolerance="10"
     gridtolerance="10"
     guidetolerance="10"
     inkscape:pageopacity="0"
     inkscape:pageshadow="2"
     inkscape:window-width="1087"
     inkscape:window-height="480"
     id="namedview10"
     showgrid="false"
     inkscape:zoom="4.9166667"
     inkscape:cx="2.1355932"
     inkscape:cy="24"
     inkscape:window-x="0"
     inkscape:window-y="25"
     inkscape:window-maximized="0"
     inkscape:current-layer="svg8" />
  <path
     d="M 8.5,9.69 H 4.2 v 0.6 c 1.44,1.03 3.1,0.72 4.3,-0.02 z"
     id="path2"
     inkscape:connector-curvature="0"
     style="fill:#800000" />
  <path
     d="M 6.42,1.93 A 4.5,4.5 0 0 0 4.2,2.49 v 7.2 H 8.5 L 8.51,2.49 A 4.83,4.83 0 0 0 6.41,1.93 Z M 6.79,3.37 V 5.83 H 7.65 L 5.92,9.2 V 6.73 H 5.05 L 6.8,3.37 Z"
     id="path4"
     inkscape:connector-curvature="0"
     style="opacity:0.5;fill:#1a1a1a" />
  <path
     d="m 6.35,1.35 a 5,5 0 0 0 -5,5 5,5 0 0 0 5,5 5,5 0 0 0 5,-5 5,5 0 0 0 -5,-5 z M 6.34,2.1 a 4.3,4.3 0 0 1 4.3,4.3 4.3,4.3 0 0 1 -4.3,4.29 4.3,4.3 0 0 1 -4.3,-4.3 4.3,4.3 0 0 1 4.3,-4.3 z"
     id="path6"
     inkscape:connector-curvature="0"
     style="fill:#800000" />
</svg>
